icons/circleci/circleci-plain-wordmark.svg

<svg xmlns="http://www.w3.org/2000/svg" viewBox="0 0 128 128">
<path fill="#343434" d="M 20.480469 110.078125 L 18.046875 110.078125 C 17.855469 110.078125 17.726562 110.144531 17.601562 110.273438 C 16.191406 112.382812 13.761719 113.726562 11.070312 113.726562 C 6.71875 113.726562 3.136719 110.207031 3.136719 105.792969 C 3.136719 101.375 6.65625 97.855469 11.070312 97.855469 C 13.824219 97.855469 16.191406 99.265625 17.601562 101.3125 C 17.726562 101.441406 17.855469 101.503906 18.046875 101.503906 L 20.480469 101.503906 C 20.800781 101.503906 20.992188 101.246094 20.992188 100.992188 C 20.992188 100.929688 20.992188 100.800781 20.929688 100.734375 C 19.136719 97.152344 15.359375 94.65625 11.070312 94.65625 C 4.929688 94.65625 0 99.585938 0 105.726562 C 0 111.871094 4.929688 116.800781 11.070312 116.800781 C 15.425781 116.800781 19.136719 114.304688 20.929688 110.71875 C 20.992188 110.65625 20.992188 110.59375 20.992188 110.464844 C 20.992188 110.335938 20.800781 110.078125 20.480469 110.078125 Z M 27.839844 91.136719 C 27.839844 92.289062 26.878906 93.246094 25.726562 93.246094 C 24.574219 93.246094 23.617188 92.289062 23.617188 91.136719 C 23.617188 89.984375 24.574219 89.023438 25.726562 89.023438 C 26.945312 89.023438 27.839844 89.984375 27.839844 91.136719 Z M 27.328125 115.902344 L 27.328125 95.359375 L 24.191406 95.359375 L 24.191406 115.902344 C 24.191406 116.222656 24.449219 116.414062 24.703125 116.414062 L 26.816406 116.414062 C 27.136719 116.414062 27.328125 116.160156 27.328125 115.902344 Z M 41.023438 94.847656 C 37.824219 94.976562 35.265625 96.511719 33.664062 98.878906 L 33.664062 95.9375 C 33.664062 95.617188 33.40625 95.425781 33.152344 95.425781 L 31.039062 95.425781 C 30.71875 95.425781 30.527344 95.679688 30.527344 95.9375 L 30.527344 115.96875 C 30.527344 116.289062 30.785156 116.480469 31.039062 116.480469 L 33.152344 116.480469 C 33.472656 116.480469 33.664062 116.222656 33.664062 115.96875 L 33.664062 105.921875 C 33.664062 101.761719 36.929688 98.304688 41.023438 98.046875 C 41.34375 98.046875 41.535156 97.792969 41.535156 97.535156 L 41.535156 95.359375 C 41.601562 95.039062 41.34375 94.847656 41.023438 94.847656 Z M 62.078125 110.078125 L 59.648438 110.078125 C 59.457031 110.078125 59.328125 110.144531 59.199219 110.273438 C 57.792969 112.382812 55.359375 113.726562 52.671875 113.726562 C 48.320312 113.726562 44.734375 110.207031 44.734375 105.792969 C 44.734375 101.375 48.257812 97.855469 52.671875 97.855469 C 55.425781 97.855469 57.792969 99.265625 59.199219 101.3125 C 59.328125 101.441406 59.457031 101.503906 59.648438 101.503906 L 62.078125 101.503906 C 62.398438 101.503906 62.59375 101.246094 62.59375 100.992188 C 62.59375 100.929688 62.59375 100.800781 62.527344 100.734375 C 60.734375 97.152344 56.960938 94.65625 52.671875 94.65625 C 46.527344 94.65625 41.601562 99.585938 41.601562 105.726562 C 41.601562 111.871094 46.527344 116.800781 52.671875 116.800781 C 57.023438 116.800781 60.734375 114.304688 62.527344 110.71875 C 62.59375 110.65625 62.59375 110.59375 62.59375 110.464844 C 62.59375 110.335938 62.335938 110.078125 62.078125 110.078125 Z M 68.414062 88.511719 L 66.304688 88.511719 C 65.984375 88.511719 65.792969 88.769531 65.792969 89.023438 L 65.792969 115.902344 C 65.792969 116.222656 66.046875 116.414062 66.304688 116.414062 L 68.414062 116.414062 C 68.734375 116.414062 68.929688 116.160156 68.929688 115.902344 L 68.929688 89.023438 C 68.929688 88.703125 68.671875 88.511719 68.414062 88.511719 Z M 83.136719 94.785156 C 76.992188 94.785156 72.0625 99.710938 72.0625 105.855469 C 72.0625 112 76.992188 116.929688 83.136719 116.929688 C 87.488281 116.929688 91.199219 114.433594 92.992188 110.847656 C 93.054688 110.785156 93.054688 110.71875 93.054688 110.59375 C 93.054688 110.273438 92.800781 110.078125 92.542969 110.078125 L 90.113281 110.078125 C 89.921875 110.078125 89.792969 110.144531 89.664062 110.273438 C 88.257812 112.382812 85.824219 113.726562 83.136719 113.726562 C 79.105469 113.726562 75.839844 110.71875 75.328125 106.878906 L 93.695312 106.878906 C 93.953125 106.878906 94.207031 106.6875 94.207031 106.367188 C 94.207031 106.175781 94.207031 105.984375 94.207031 105.792969 C 94.207031 99.777344 89.28125 94.785156 83.136719 94.785156 Z M 75.519531 103.808594 C 76.414062 100.480469 79.488281 97.984375 83.136719 97.984375 C 86.785156 97.984375 89.855469 100.414062 90.753906 103.808594 Z M 124.863281 87.9375 C 123.136719 87.9375 121.726562 89.34375 121.726562 91.070312 C 121.726562 92.800781 123.136719 94.207031 124.863281 94.207031 C 126.59375 94.207031 128 92.800781 128 91.070312 C 128 89.40625 126.59375 87.9375 124.863281 87.9375 Z M 127.488281 95.359375 L 127.488281 115.902344 C 127.488281 116.222656 127.230469 116.414062 126.976562 116.414062 L 122.753906 116.414062 C 122.433594 116.414062 122.238281 116.160156 122.238281 115.902344 L 122.238281 95.359375 Z M 108.480469 116.929688 C 113.664062 116.929688 117.953125 113.40625 119.230469 108.609375 C 119.230469 108.542969 119.230469 108.542969 119.230469 108.480469 C 119.230469 108.160156 118.976562 107.96875 118.71875 107.96875 L 114.238281 107.96875 C 114.046875 107.96875 113.855469 108.097656 113.792969 108.289062 C 112.894531 110.273438 110.847656 111.679688 108.542969 111.679688 C 105.34375 111.679688 102.71875 109.054688 102.71875 105.855469 C 102.71875 102.65625 105.34375 100.03125 108.542969 100.03125 C 110.910156 100.03125 112.894531 101.441406 113.792969 103.425781 C 113.855469 103.617188 114.046875 103.742188 114.238281 103.742188 L 118.71875 103.742188 C 119.039062 103.742188 119.230469 103.488281 119.230469 103.230469 C 119.230469 103.167969 119.230469 103.167969 119.230469 103.105469 C 118.015625 98.304688 113.664062 94.785156 108.480469 94.785156 C 102.335938 94.785156 97.40625 99.710938 97.40625 105.855469 C 97.40625 112 102.335938 116.929688 108.480469 116.929688 Z M 108.480469 116.929688 M 55.488281 44.734375 C 55.488281 40.320312 59.070312 36.734375 63.488281 36.734375 C 67.902344 36.734375 71.488281 40.320312 71.488281 44.734375 C 71.488281 49.152344 67.902344 52.734375 63.488281 52.734375 C 59.070312 52.800781 55.488281 49.152344 55.488281 44.734375 Z M 63.488281 11.070312 C 47.742188 11.070312 34.558594 21.824219 30.847656 36.414062 C 30.847656 36.542969 30.785156 36.609375 30.785156 36.734375 C 30.785156 37.632812 31.488281 38.335938 32.382812 38.335938 L 45.953125 38.335938 C 46.59375 38.335938 47.167969 37.953125 47.425781 37.375 C 50.238281 31.296875 56.320312 27.070312 63.488281 27.070312 C 73.214844 27.070312 81.152344 35.007812 81.152344 44.734375 C 81.152344 54.464844 73.214844 62.398438 63.488281 62.398438 C 56.382812 62.398438 50.238281 58.175781 47.425781 52.097656 C 47.167969 51.519531 46.59375 51.136719 45.953125 51.136719 L 32.382812 51.136719 C 31.488281 51.136719 30.785156 51.839844 30.785156 52.734375 C 30.785156 52.863281 30.785156 52.929688 30.847656 53.054688 C 34.558594 67.648438 47.742188 78.398438 63.488281 78.398438 C 82.113281 78.398438 97.214844 63.296875 97.214844 44.671875 C 97.214844 26.113281 82.113281 11.070312 63.488281 11.070312 Z M 63.488281 11.070312 "/>
</svg>

<svg xmlns="http://www.w3.org/2000/svg" viewBox="0 0 128 128"><path fill="#343434" d="M20.48 110.078h-2.433a.572.572 0 00-.445.195c-1.41 2.11-3.84 3.454-6.532 3.454-4.351 0-7.933-3.52-7.933-7.934a7.893 7.893 0 017.933-7.938c2.754 0 5.121 1.41 6.532 3.457a.568.568 0 00.445.192h2.433c.32 0 .512-.258.512-.512 0-.062 0-.191-.062-.258-1.793-3.582-5.57-6.078-9.86-6.078-6.14 0-11.07 4.93-11.07 11.07 0 6.145 4.93 11.075 11.07 11.075 4.356 0 8.067-2.496 9.86-6.082.062-.063.062-.125.062-.254 0-.13-.191-.387-.512-.387zm7.36-18.941a2.13 2.13 0 01-2.113 2.11 2.126 2.126 0 01-2.11-2.11 2.13 2.13 0 012.11-2.114 2.09 2.09 0 012.113 2.114zm-.512 24.765V95.36h-3.137v20.543c0 .32.258.512.512.512h2.113c.32 0 .512-.254.512-.512zm13.695-21.054c-3.199.129-5.757 1.664-7.359 4.03v-2.94a.505.505 0 00-.512-.512H31.04a.503.503 0 00-.512.511v20.032c0 .32.258.511.512.511h2.113c.32 0 .512-.257.512-.511v-10.047c0-4.16 3.266-7.617 7.36-7.875.32 0 .511-.254.511-.512V95.36c.067-.32-.191-.511-.512-.511zm21.055 15.23h-2.43a.586.586 0 00-.449.195c-1.406 2.11-3.84 3.454-6.527 3.454-4.352 0-7.938-3.52-7.938-7.934a7.897 7.897 0 017.938-7.938c2.754 0 5.121 1.41 6.527 3.457a.582.582 0 00.45.192h2.43c.32 0 .515-.258.515-.512 0-.062 0-.191-.067-.258-1.793-3.582-5.566-6.078-9.855-6.078-6.145 0-11.07 4.93-11.07 11.07a11.035 11.035 0 0011.07 11.075c4.351 0 8.062-2.496 9.855-6.082.067-.063.067-.125.067-.254 0-.13-.258-.387-.516-.387zm6.336-21.566h-2.11a.505.505 0 00-.511.511v26.88c0 .32.254.511.512.511h2.11c.32 0 .515-.254.515-.512V89.023a.506.506 0 00-.516-.511zm14.723 6.273a11.035 11.035 0 00-11.075 11.07c0 6.145 4.93 11.075 11.075 11.075 4.351 0 8.062-2.496 9.855-6.082.063-.063.063-.13.063-.254a.506.506 0 00-.512-.516h-2.43a.586.586 0 00-.449.195c-1.406 2.11-3.84 3.454-6.527 3.454-4.032 0-7.297-3.008-7.809-6.848h18.367a.503.503 0 00.512-.512v-.574c0-6.016-4.926-11.008-11.07-11.008zm-7.617 9.024c.894-3.329 3.968-5.825 7.617-5.825 3.648 0 6.718 2.43 7.617 5.825zm49.343-15.871a3.14 3.14 0 00-3.136 3.132c0 1.73 1.41 3.137 3.136 3.137A3.14 3.14 0 00128 91.07c0-1.664-1.406-3.132-3.137-3.132zm2.625 7.421v20.543c0 .32-.258.512-.511.512h-4.223a.506.506 0 01-.516-.512V95.36zm-19.008 21.57c5.184 0 9.473-3.523 10.75-8.32v-.129a.503.503 0 00-.511-.511h-4.48a.478.478 0 00-.446.32c-.898 1.984-2.945 3.39-5.25 3.39-3.2 0-5.824-2.624-5.824-5.824 0-3.199 2.625-5.824 5.824-5.824 2.367 0 4.352 1.41 5.25 3.395a.474.474 0 00.445.316h4.48c.321 0 .512-.254.512-.512v-.125c-1.214-4.8-5.566-8.32-10.75-8.32a11.035 11.035 0 00-11.074 11.07c0 6.145 4.93 11.075 11.074 11.075zM55.488 44.735c0-4.414 3.582-8 8-8 4.414 0 8 3.586 8 8 0 4.418-3.586 8-8 8-4.418.067-8-3.582-8-8zm8-33.664c-15.746 0-28.93 10.754-32.64 25.344 0 .129-.063.195-.063.32 0 .899.703 1.602 1.598 1.602h13.57c.64 0 1.215-.383 1.473-.961 2.812-6.078 8.894-10.305 16.062-10.305 9.727 0 17.664 7.938 17.664 17.664 0 9.73-7.937 17.664-17.664 17.664-7.105 0-13.25-4.222-16.062-10.3a1.617 1.617 0 00-1.473-.961h-13.57c-.895 0-1.598.703-1.598 1.597 0 .13 0 .196.063.32 3.71 14.594 16.894 25.344 32.64 25.344 18.625 0 33.727-15.101 33.727-33.726 0-18.559-15.102-33.602-33.727-33.602zm0 0"/></svg>
